app/dist/common/images/aier-eye-hospital.svg

<svg height="18" viewBox="0 0 18 18" width="18" xmlns="http://www.w3.org/2000/svg"><path d="m0 0h18v18h-18z" fill="#f0f3fa"/><path d="m6.2 6h-4.2v6h3.73l.47-1h-3.2v-1.5h2.47l.5-1h-2.97v-1.5h2.82zm5.6 0h4.2v6h-3.7l-.5-1h3.2v-1.5h-2.45l-.51-1h2.96v-1.5h-2.82z" fill="#004ea1"/><path d="m11.72 6h-1.11l-1.71 2.35-1.47-2.35h-1.18l2.25 3.46v2.54h1v-2.69z" fill="#6fb924"/></svg>

<!-- by TradingView --><svg width="18" height="18" viewBox="0 0 18 18" xmlns="http://www.w3.org/2000/svg"><path fill="#F0F3FA" d="M0 0h18v18H0z"/><path d="M6.2 6H2v6h3.73l.47-1H3V9.5h2.47l.5-1H3V7h2.82l.38-1ZM11.8 6H16v6h-3.7l-.5-1H15V9.5h-2.45l-.51-1H15V7h-2.82l-.38-1Z" fill="#004EA1"/><path d="M11.72 6h-1.11L8.9 8.35 7.43 6H6.25L8.5 9.46V12h1V9.31L11.72 6Z" fill="#6FB924"/></svg>
